!!!OTL: Die Koenigskinder Et wassen twee Kuenigeskinner,
!!!ARE: Europa, Mitteleuropa, Deutschland (BRD), Westfalen
!!!YOR: 1, S. 198
!!    1842 aufgezeichnet
!!!SCT: Q0020A
!!!YEM: Copyright 1995, estate of Helmut Schaffrath.
**kern
*ICvox
*Ivox
*M4/4
*k[b-]
*F:
{8c
=1
8c
8a
8a
8a
8a
8g
8g
8g
=2
8g
8f
4f
4.r}
{8c
=3
8c
8b-
8b-
8b-
8b-
8a
8cc
8a
=4
4a
4g
4.r}
{8c
=5
8c
8cc
8cc
8cc
8cc
8b-
8b-
8b-
=6
4a
4ff
8cc
8b-}
{8a
8g
=7
8g
8f
8f
8f
8a
8g
8g
8f
=8
4f
4r}
{4.g
8b-
=9
8a
8ff
8cc
8a
8a
8g
8g
8f
=10
4f
2.r}
==
!!!AGN: Ballade, Liebe, Trennung, Tod
!!!ONB: ESAC (Essen Associative Code) Database: BALLADE
!!!AMT: simple quadruple
!!!AIN: vox
!!!EED: Helmut Schaffrath
!!!EEV: 1.0
*-
